!!!COM:	Bach, Johann Sebastian
!!!CDT:	1685/02/21/-1750/07/28/
!!!OTL@@DE:	Ach lieben Christen, seid getrost
!!!SCT:	BWV 114/7
!!!PC#:	301
!!!AGN:	chorale
**kern	**kern	**kern	**kern
*ICvox	*ICvox	*ICvox	*ICvox
*Ibass	*Itenor	*Ialto	*Isoprn
*I"Bass	*I"Tenor	*I"Alto	*I"Soprano
*>[A,A,B]	*>[A,A,B]	*>[A,A,B]	*>[A,A,B]
*>norep[A,B]	*>norep[A,B]	*>norep[A,B]	*>norep[A,B]
*>A	*>A	*>A	*>A
*clefF4	*clefGv2	*clefG2	*clefG2
*k[b-e-]	*k[b-e-]	*k[b-e-]	*k[b-e-]
*g:	*g:	*g:	*g:
*M4/4	*M4/4	*M4/4	*M4/4
*met(c)	*met(c)	*met(c)	*met(c)
*MM100	*MM100	*MM100	*MM100
4G	4d	4g	4b-
=1	=1	=1	=1
4D	8dL	4f	4b-
.	8cJ	.	.
8E-L	4B-	4e-	8gL
8FJ	.	.	8aJ
8GL	4B-	4d	8b-L
8AJ	.	.	8ccJ
4B-	4F	4d	4dd
=2	=2	=2	=2
4E-	4G	4e-	4cc
4F	4A	16e-LL	4cc
.	.	16dJ	.
.	.	8e-J	.
4BB-;	4F;	4d;	4b-;
4GG	4G	4d	4b-
=3	=3	=3	=3
4D	8F#L	8dL	4a
.	8e-J	8ccJ	.
8EL	8dL	8b-L	8gL
8F#J	8cJ	8aJ	8aJ
8GL	8B-L	4g	4b-
8F	8AJ	.	.
8E-	4G	8gL	8ccL
8DJ	.	8fJ	8b-J
=4	=4	=4	=4
4C	4G	4e-	2a
4D	4F#	8dL	.
.	.	8cJ	.
4GG;	4G;	4B-;	4g;
=:|!	=:|!	=:|!	=:|!
*>B	*>B	*>B	*>B
4AA	4FnX	4f	4cc
=5	=5	=5	=5
8BB-L	4B-	4f	4dd
8CJ	.	.	.
8DL	4B-	4f	4dd
8E-J	.	.	.
8FL	4f	4.c	8aL
8GJ	.	.	8b-J
8AL	8f#L	.	4cc
8F#XJ	8AJ	8a	.
=6	=6	=6	=6
8GL	8B-L	8aL	4b-
8AJ	8cJ	16gL	.
.	.	16f#JJ	.
8B-L	4d	4g	4b-
8cJ	.	.	.
4d;	4d;	4f#;	4a;
8GL	4d	4g	4b-
8FnXJ	.	.	.
=7	=7	=7	=7
8E-L	4G	8gL	4cc
8DJ	.	8fnXJ	.
4C	4c	4e-	8gL
.	.	.	8aJ
4GG	4B-	8dL	4b-
.	.	8eJ	.
8AAL	4c	4f	4a
8BB-J	.	.	.
=8	=8	=8	=8
8CL	8cL	4f	4g
8BB-J	8GJ	.	.
4C	8cL	4e	4g
.	8B-J	.	.
4FF;	4A;	4c;	4f;
8DL	8FL	4d	4b-
8EJ	8GJ	.	.
=9	=9	=9	=9
4F	8AL	8cL	4a
.	8B-J	8dJ	.
4C	4c	8eL	8gL
.	.	8f#J	8aJ
8GL	4d	4g	4b-
8FnXJ	.	.	.
8E-L	8cL	4g	8ccL
8DJ	8dJ	.	8b-J
=10	=10	=10	=10
4C	8e-XL	4g	2a
.	8A	.	.
4D	8d	4f#	.
.	8cJ	.	.
4GG;	4B;	4d;	4g;
==	==	==	==
*-	*-	*-	*-
!!!hum2abc: -Q ''
!!!title: @{PC#}. @{OTL@@DE}
!!!YOR1: 371 vierstimmige Choralges&auml;nge von Johann Sebastian Bach, 
!!!YOR2: 4th ed. by Alfred D&ouml;rffel (Leipzig: Breitkopf und H&auml;rtel, 
!!!YOR2: c.1875). 178 pp. Plate "V.A.10".  reprint: J.S. Bach, 371 Four-Part 
!!!YOR4: Chorales (New York: Associated Music Publishers, Inc., c.1940).
!!!SMS: B&H, 4th ed, Alfred D&ouml;rffel, c.1875, plate V.A.10
!!!EED:  Craig Stuart Sapp
!!!EEV:  2009/05/22
